svg/fluentui-system-icons/ic_fluent_dock_24_regular.svg

<svg width="24" height="24" viewBox="0 0 24 24" fill="none" xmlns="http://www.w3.org/2000/svg">
<path d="M4.79354 9.99677H9.49194C9.90615 9.99677 10.2419 10.3326 10.2419 10.7468C10.2419 11.1265 9.95978 11.4403 9.59371 11.4899L9.49194 11.4968H4.79354C4.12186 11.4968 3.59079 11.9464 3.52702 12.4981L3.5206 12.6097L3.5 17.3862C3.5 17.947 3.98909 18.4316 4.64056 18.49L4.77293 18.4959H19.2271C19.8987 18.4959 20.4298 18.0463 20.4936 17.4946L20.5 17.383L20.5206 12.6065C20.5206 12.0457 20.0315 11.561 19.38 11.5027L19.2477 11.4968H14.5528C14.1386 11.4968 13.8028 11.161 13.8028 10.7468C13.8028 10.3671 14.0849 10.0533 14.451 10.0036L14.5528 9.99677H19.2477C20.7073 9.99677 21.9237 11.0634 22.0151 12.4427L22.0206 12.6097L22 17.3862C22 18.7863 20.8398 19.9067 19.401 19.9909L19.2271 19.9959H4.77293C3.3133 19.9959 2.09692 18.9293 2.00551 17.55L2 17.383L2.0206 12.6065C2.0206 11.2064 3.18084 10.086 4.61961 10.0018L4.79354 9.99677H9.49194H4.79354ZM12.4462 3.14705L12.5303 3.21967L16.4554 7.14473C16.7483 7.43763 16.7483 7.9125 16.4554 8.20539C16.1891 8.47166 15.7725 8.49587 15.4788 8.27801L15.3947 8.20539L12.7383 5.54581L12.7397 15.2539C12.7397 15.6681 12.4039 16.0039 11.9897 16.0039C11.5755 16.0039 11.2397 15.6681 11.2397 15.2539L11.2409 5.569L8.60526 8.20539C8.33899 8.47166 7.92233 8.49587 7.62872 8.27801L7.5446 8.20539C7.27833 7.93913 7.25413 7.52246 7.47198 7.22885L7.5446 7.14473L11.4697 3.21967C11.7359 2.9534 12.1526 2.9292 12.4462 3.14705Z" fill="#212121"/>
</svg>

<svg xmlns="http://www.w3.org/2000/svg" width="24" height="24"><path d="M4.794 9.997h4.698a.75.75 0 0 1 .102 1.493l-.102.007H4.794c-.672 0-1.203.45-1.267 1.001l-.006.112-.021 4.776c0 .561.49 1.046 1.14 1.104l.133.006h14.454c.672 0 1.203-.45 1.267-1.001l.006-.112.02-4.776c0-.561-.488-1.046-1.14-1.104l-.132-.006h-4.695a.75.75 0 0 1-.102-1.493l.102-.007h4.695c1.46 0 2.676 1.066 2.767 2.446l.006.167L22 17.386c0 1.4-1.16 2.52-2.599 2.605l-.174.005H4.773c-1.46 0-2.676-1.067-2.767-2.446L2 17.383l.02-4.776c0-1.4 1.16-2.521 2.6-2.605l.174-.005h4.698-4.698Zm7.652-6.85.084.073 3.925 3.925a.75.75 0 0 1-.976 1.133l-.084-.073-2.657-2.66.002 9.709a.75.75 0 0 1-1.5 0V5.569L8.606 8.205a.75.75 0 0 1-.976.073l-.084-.073a.75.75 0 0 1-.073-.976l.073-.084L11.47 3.22a.75.75 0 0 1 .976-.073Z"/></svg>
